X: 7182
T: Cicada, The
R: slip jig
M: 9/8
K: Bminor
Bff fef g2f|Bff fed cde|Bff fef g2a|bag fgf edc|
B z f fef g2f|Bff fed ecA|Bff fef g2a|bag fgf edc||
d2A def g2f|eAA egf edc|d2A def g2f|e/f/gf edc dAB|
d2d def g2f|eAA egf edc|dAA def g2a|bag fgf edc||

